X:1
T:1812 Overture (finale theme)
C:Pyotr Ilyich Tchaikovsky
M:4/4
L:1/4
Q:1/4=132
K:Eb
% Triumphant finale — "God Save the Tsar" march theme, Bb4-D5
B | E G B2 | c B A G | B2 E2 | G4 |
G B c B | A G F E | G A B d | B3 |]
